X:21
T:Yankee John, Stormalong
M:6/8
L:1/8
Q:1/4=90
K:A
E2C|\
EFC E3|A,A,A,-A,3|AAA-A3|EFC ECD|
EFC E3|A,A,A,-A,3|B,CB, A,2B,|C3||
